src/images/arrow.svg

<svg fill="none" height="21" viewBox="0 0 42 21" width="42" xmlns="http://www.w3.org/2000/svg"><path clip-rule="evenodd" d="m21 21 1.96-1.96-1.96-2.1-2.1 2.1zm2.24-2.24.42-.42-2.1-2.1-.42.42zm.7-.7 18.06-18.06h-4.2l-15.96 15.96zm13.3-18.06h-.7l-15.4 15.26.42.42zm-16.24 15.54-.42.42.42.42.42-.42zm-.7.7-2.1 2.1.42.42 2.1-2.1zm15.68-16.24h-30.1l15.12 15.12zm-30.52 0h-.84l15.68 15.68.42-.42zm-1.4 0h-4.06l17.92 18.06 2.1-2.1z" fill="#3c827a" fill-rule="evenodd"/></svg>

<svg width="42" height="21" viewBox="0 0 42 21" fill="none" xmlns="http://www.w3.org/2000/svg">
<path fill-rule="evenodd" clip-rule="evenodd" d="M21 21L22.96 19.04L21 16.94L18.9 19.04L21 21ZM23.24 18.76L23.66 18.34L21.56 16.24L21.14 16.66L23.24 18.76ZM23.94 18.06L42 0H37.8L21.84 15.96L23.94 18.06ZM37.24 0H36.54L21.14 15.26L21.56 15.68L37.24 0ZM21 15.54L20.58 15.96L21 16.38L21.42 15.96L21 15.54ZM20.3 16.24L18.2 18.34L18.62 18.76L20.72 16.66L20.3 16.24ZM35.98 0H5.88L21 15.12L35.98 0ZM5.46 0H4.62L20.3 15.68L20.72 15.26L5.46 0ZM4.06 0H0L17.92 18.06L20.02 15.96L4.06 0Z" fill="#3C827A"/>
</svg>
